icon-themes/sifr_svg/cmd/lc_zoomobjects.svg

<svg viewBox="0 0 24 24" xmlns="http://www.w3.org/2000/svg"><path d="m5 3c-1.108 0-2 .892-2 2v14c0 1.108.892 2 2 2h14c1.108 0 2-.892 2-2v-14c0-1.108-.892-2-2-2zm2 4h4v1h-3v3h-1zm6 0h4v4h-1v-3h-3zm-3 3h4v4h-4zm-3 3h1v3h3v1h-4zm9 0h1v4h-4v-1h3z" fill="#555753"/></svg>

<svg xmlns="http://www.w3.org/2000/svg" viewBox="0 0 24 24">
 <path
     style="fill:#555753"
     d="M 5 3 C 3.892 3 3 3.892 3 5 L 3 19 C 3 20.108 3.892 21 5 21 L 19 21 C 20.108 21 21 20.108 21 19 L 21 5 C 21 3.892 20.108 3 19 3 L 5 3 z M 7 7 L 11 7 L 11 8 L 8 8 L 8 11 L 7 11 L 7 7 z M 13 7 L 17 7 L 17 11 L 16 11 L 16 8 L 13 8 L 13 7 z M 10 10 L 14 10 L 14 14 L 10 14 L 10 10 z M 7 13 L 8 13 L 8 16 L 11 16 L 11 17 L 7 17 L 7 13 z M 16 13 L 17 13 L 17 17 L 13 17 L 13 16 L 16 16 L 16 13 z "
     />
 </svg>
